X: 19182
T: Isaac's Maggot
R: three-two
M: 3/2
K: Dmajor
a2 f2 e2|d/e/ f ed cA|Ad dc B2|Be ed cA|
a2 f2 e2|d/e/ f ed cA|Ad dc B g/f/|ed dc d2|
FA AB A2|FA A B/c/ d A|FA AB A2|FA A B/c/ d A|
a g/a/ b a/g/ a g/a/|b/a/g/f/ g/f/e/d/ cA|a g/a/ b a/g/ a g/a/|
b/a/g/f/ g/f/e/d/ cA|f2 g2 a2|d/e/ f ed cA|f2 g2 a2|Ad dc d2||

